src/images/Icons/Light/Skills.svg

<svg fill="none" height="32" viewBox="0 0 32 32" width="32" xmlns="http://www.w3.org/2000/svg"><g fill="#2b3652"><path d="m22.2339 2.66675h-12.45629c-4.53925 0-7.11111 2.57185-7.11111 7.11111v12.44444c0 4.5393 2.57186 7.1111 7.11111 7.1111h12.45629c4.5393 0 7.0993-2.5718 7.0993-7.1111v-12.44444c0-4.53926-2.56-7.11111-7.0993-7.11111z" opacity=".4"/><path d="m9.82488 12.4919c-.60445 0-1.10222.4978-1.10222 1.1141v9.1615c0 .6044.49777 1.1022 1.10222 1.1022.61632 0 1.11412-.4978 1.11412-1.1022v-9.1615c0-.6163-.4978-1.1141-1.11412-1.1141z"/><path d="m16.047 8.11865c-.6044 0-1.1022.49778-1.1022 1.11408v13.53477c0 .6045.4978 1.1023 1.1022 1.1023.6163 0 1.1141-.4978 1.1141-1.1023v-13.53477c0-.6163-.4978-1.11408-1.1141-1.11408z"/><path d="m22.1863 17.3276c-.6163 0-1.114.4978-1.114 1.1141v4.3259c0 .6045.4977 1.1023 1.1022 1.1023.6163 0 1.1141-.4978 1.1141-1.1023v-4.3259c0-.6163-.4978-1.1141-1.1023-1.1141z"/></g></svg>

<svg width="32" height="32" viewBox="0 0 32 32" fill="none" xmlns="http://www.w3.org/2000/svg">
<path opacity="0.4" d="M22.2339 2.66675H9.77761C5.23836 2.66675 2.6665 5.2386 2.6665 9.77786V22.2223C2.6665 26.7616 5.23836 29.3334 9.77761 29.3334H22.2339C26.7732 29.3334 29.3332 26.7616 29.3332 22.2223V9.77786C29.3332 5.2386 26.7732 2.66675 22.2339 2.66675Z" fill="#2B3652"/>
<path d="M9.82488 12.4919C9.22043 12.4919 8.72266 12.9897 8.72266 13.606V22.7675C8.72266 23.3719 9.22043 23.8697 9.82488 23.8697C10.4412 23.8697 10.939 23.3719 10.939 22.7675V13.606C10.939 12.9897 10.4412 12.4919 9.82488 12.4919Z" fill="#2B3652"/>
<path d="M16.047 8.11865C15.4426 8.11865 14.9448 8.61643 14.9448 9.23273V22.7675C14.9448 23.372 15.4426 23.8698 16.047 23.8698C16.6633 23.8698 17.1611 23.372 17.1611 22.7675V9.23273C17.1611 8.61643 16.6633 8.11865 16.047 8.11865Z" fill="#2B3652"/>
<path d="M22.1863 17.3276C21.57 17.3276 21.0723 17.8254 21.0723 18.4417V22.7676C21.0723 23.3721 21.57 23.8699 22.1745 23.8699C22.7908 23.8699 23.2886 23.3721 23.2886 22.7676V18.4417C23.2886 17.8254 22.7908 17.3276 22.1863 17.3276Z" fill="#2B3652"/>
</svg>
